X:1
T:Kesh Jig, The
R:Jig
M:6/8
%%printtempo 0
Q:180
K:G
%%printtempo 0
"G"G2G GAB|"D"ABA ABd |"G"edd gdd|edB "D"dBA|"G"GAG GAB|
"D"ABA ABd|"G"edd gdB|1"D"AGF "G"G2D :|2"D"AGF "G"G2A|:"G"B2B dBd|"C"ege "G"dBG|
B2B dBG|"D"ABA AGA|"G"B2B dBd|"C"ege "G"dBd|gfg "D"aga|"G"bgf g3:|
